X:127
T:Opp {\aa} ud {\aa} g{\aa}
R:sl\"angpolska
H:jfr nr 115
A:Sk{\aa}ne
Z:id:hn-sp-127
M:3/4
L:1/16
K:D
A2A2 B2B2 A4 | AGFG A2A2 G2F2 |
w:Opp {\aa} ud {\aa} g{\aa}, fal-le ral-le ral-la lal-la
A2A2 B2B2 A4 | AGFG E4 D4 :|
w:sto-ra tr\"a-skor p{\aa}, fal-le ral-le ral-la.
|: F2F2 G2G2 F4 | FEDE F2F2 E2D2 |
w:Vars en sup \"an-nu, fal-le ral-le ral-la lal-la
w:F{\aa} vi en-te fem, fal-le ral-le ral-la lal-la,
F2F2 G2G2 F2A2 | AGFG E4 D4 :|
w:Kan-ske f{\aa} vi sju,* fal-le ral-le ral-la.
w:G{\aa} vi hem i-gen,* fal-le ral-le ral-la.

